X: 9570
T: David Adams
R: reel
M: 4/4
K: Gmajor
G2BG FGAB|cBAG FADF|G2BG FGAB|dBcA AGG2|
GABG FGAB|cBAG FADF|GABG FGAB|dBcA G4||
bgdf ecc2|~a2ea fddf|~g2dg eceg|fdcA BGG2|
bgdg ecdg|~a2ea fdd2|~g2dg eceg|fdcA BGG2||

